rospo-icon-theme-classic-common/32x32/places/folder-violet-java.svg

<svg height="32" width="32" xmlns="http://www.w3.org/2000/svg"><rect height="16" opacity=".2" rx="1.25" width="25" x="3" y="12"/><path d="m3 21.75c0 .692.5575 1.25 1.25 1.25h22.5c.692 0 1.25-.558 1.25-1.25v-13.5c0-.6925-.558-1.25-1.25-1.25h-12.75v-.75c0-.6925-.557-1.25-1.25-1.25h-8.5c-.6925 0-1.25.5575-1.25 1.25" fill="#8b58c5"/><rect height="16" opacity=".2" rx="1.25" width="25" x="3" y="10"/><rect fill="#e4e4e4" height="10" rx="1.25" width="21" x="5" y="9"/><rect fill="#a674de" height="16" rx="1.25" width="25" x="3" y="11"/><path d="m4.25 5c-.6925 0-1.25.5575-1.25 1.25v1c0-.6925.5575-1.25 1.25-1.25h8.5c.693 0 1.25.5575 1.25 1.25v.75h12.75c.692 0 1.25.5575 1.25 1.25v-1c0-.6925-.558-1.25-1.25-1.25h-12.75v-.75c0-.6925-.557-1.25-1.25-1.25z" fill="#fff" opacity=".1"/><path d="m15.008 13s .577.353.17 1.281c-.616 1.399.568 1.719.568 1.719s-.376-.328.125-1.482c.554-1.28-.863-1.518-.863-1.518zm1.592 1.928s-1.049.465-.373 1.738c.446.843-.049 1.262-.049 1.262s1.267-.418.656-1.582c-.549-1.053-.234-1.418-.234-1.418zm-3.264.072s-.751.799-.008 1.781c.492.654.17 1.219.17 1.219s.931-.825.258-1.729c-.608-.814-.42-1.271-.42-1.271zm.162 3h-2.498l1.5 6h5.5l.34-.984c.166.041.338.07.517.07 1.184 0 2.143-.76 2.143-1.943 0-1.005-.693-1.84-1.625-2.073l.197-1.07zm5.705 1.76a.71429 1.4286 15 0 1  .024.004.71429 1.4286 15 0 1  .32 1.564.71429 1.4286 15 0 1 -1.035 1.199z" fill="#3a284d"/></svg>

<svg xmlns="http://www.w3.org/2000/svg" width="32" height="32" version="1">
 <rect style="opacity:0.2" width="25" height="16" x="3" y="12" rx="1.25" ry="1.25"/>
 <path style="fill:#8b58c5" d="M 3,21.75 C 3,22.442 3.5575,23 4.25,23 H 26.75 C 27.442,23 28,22.442 28,21.75 V 8.25 C 28,7.5575 27.442,7 26.75,7 H 14 V 6.25 C 14,5.5575 13.443,5 12.75,5 H 4.25 C 3.5575,5 3,5.5575 3,6.25"/>
 <rect style="opacity:0.2" width="25" height="16" x="3" y="10" rx="1.25" ry="1.25"/>
 <rect style="fill:#dcdcdc" width="21" height="10" x="5" y="9" rx="1.25" ry="1.25"/>
 <rect style="fill:#a674de" width="25" height="16" x="3" y="11" rx="1.25" ry="1.25"/>
 <path style="opacity:0.1;fill:#ffffff" d="M 4.25 5 C 3.5575 5 3 5.5575 3 6.25 L 3 7.25 C 3 6.5575 3.5575 6 4.25 6 L 12.75 6 C 13.443 6 14 6.5575 14 7.25 L 14 8 L 26.75 8 C 27.442 8 28 8.5575 28 9.25 L 28 8.25 C 28 7.5575 27.442 7 26.75 7 L 14 7 L 14 6.25 C 14 5.5575 13.443 5 12.75 5 L 4.25 5 z"/>
 <path style="fill:#3a284d" d="M 15.008,13 C 15.008,13 15.585,13.353 15.178,14.281 14.562,15.68 15.746,16 15.746,16 15.746,16 15.37,15.672 15.871,14.518 16.425,13.238 15.008,13 15.008,13 Z M 16.6,14.928 C 16.6,14.928 15.551,15.393 16.227,16.666 16.673,17.509 16.178,17.928 16.178,17.928 16.178,17.928 17.445,17.51 16.834,16.346 16.285,15.293 16.6,14.928 16.6,14.928 Z M 13.336,15 C 13.336,15 12.585,15.799 13.328,16.781 13.82,17.435 13.498,18 13.498,18 13.498,18 14.429,17.175 13.756,16.271 13.148,15.457 13.336,15 13.336,15 Z M 13.498,18 H 11 L 12.5,24 H 18 L 18.34,23.016 C 18.506,23.057 18.678,23.086 18.857,23.086 20.041,23.086 21,22.326 21,21.143 21,20.138 20.307,19.303 19.375,19.07 L 19.572,18 Z M 19.203,19.76 A 0.71429,1.4286 15 0 1 19.227,19.764 0.71429,1.4286 15 0 1 19.547,21.328 0.71429,1.4286 15 0 1 18.512,22.527 Z"/>
</svg>
